!!!!SEGMENT: Ver2001-Sancta_Maria_succurre_miseris.krn
!!!id: Ver2001
!!!AGN: Motet
!!!SCT: Smijers (1936)
!!!voices: 4
!!!COM: Philippe Verdelot
!!!OTL: Sancta Maria, succurre miseris
**kern	**kern	**kern	**kern
*part4	*part3	*part2	*part1
*staff4	*staff3	*staff2	*staff1
*I"Bassus	*I"Tenor	*I"Altus	*I"Superius
*I'B	*I'T	*I'A	*I'S
*clefF4	*clefGv2	*clefG2	*clefG2
*k[]	*k[]	*k[]	*k[]
*C:	*C:	*C:	*C:
*M2/1	*M2/1	*M2/1	*M2/1
*met(C|)	*met(C|)	*met(C|)	*met(C|)
!!section: Prima pars: Sancta Maria, succurre miseris
!!!OMD: Prima pars: Sancta Maria, succurre miseris
=1	=1	=1	=1
0r	0r	1G	0g
.	.	[1c	.
=2	=2	=2	=2
1r	1r	2c]	1g
.	.	2B	.
1D	[1d	1A	1a
=3	=3	=3	=3
1.G	1d]	2.G	1b
.	.	4A	.
.	1d	4B	1g
.	.	4c	.
2F	.	[2d	.
=4	=4	=4	=4
1E	1e	2d]	1r
.	.	2c#i	.
1D	1f	1d	1a
=5	=5	=5	=5
1r	1d	2r	1.dd
.	.	1d	.
[1G	1r	.	.
.	.	2d	2cc
=6	=6	=6	=6
2G]	1r	1e	1b
2G	.	.	.
1A	1c	1f	1a
=7	=7	=7	=7
1B-X	1f	1d	2r
.	.	.	2dd
1G	2.g	1r	2dd
.	.	.	2b
.	4f	.	.
=8	=8	=8	=8
2.A	4e	1c	2.cc
.	4d	.	.
.	2.c	.	.
4G	.	.	4b
2.F	.	[1f	4a
.	4B	.	4g
.	4A	.	[2a
4E	4G	.	.
=9	=9	=9	=9
0D	1F	2f]	4a]
.	.	.	4g
.	.	2d	4f
.	.	.	4e
.	1A	1f	2d
.	.	.	[2a
=10	=10	=10	=10
1C	2.c	1e	2a]
.	.	.	1g
.	4B	.	.
1D	1A	2.d	.
.	.	.	2f#i
.	.	4c	.
=11	=11	=11	=11
2.G	2G	2.B	0g
.	1d	.	.
4F	.	4A	.
1E	.	2G	.
.	2c	[2g	.
=12	=12	=12	=12
1D	2d	2g]	1r
.	2A	2f	.
1r	2c	2g	2r
.	2B	2d	[2dd
=13	=13	=13	=13
0r	1A	2f	2dd]
.	.	2e	2cc
.	1r	2d	2dd
.	.	[2f	2a
=14	=14	=14	=14
1r	0r	4f]	1cc
.	.	4g	.
.	.	2a	.
2r	.	2d	1b
[2G	.	2e	.
=15	=15	=15	=15
2G]	0r	2f	1a
2F	.	2d	.
2G	.	2e	2r
2D	.	[2f	[2a
=16	=16	=16	=16
1F	2r	4f]	4a]
.	.	4g	4b
.	1d	4a	4cc
.	.	4f	4dd
1E	.	2.g	4ee
.	.	.	4ff
.	2c	.	[2gg
.	.	4a	.
=17	=17	=17	=17
1D	2d	2b-i	4gg]
.	.	.	4ff
.	2A	1a	2.ff
1r	1c	.	.
.	.	.	4ee
.	.	[2g	[2ee
=18	=18	=18	=18
1r	1B	4g]	4ee]
.	.	4f	4dd
.	.	2d	1dd
2r	1A	2f	.
2A	.	[2e	2cc#i
=19	=19	=19	=19
1.B-i	0r	2e]	1dd
.	.	1d	.
.	.	.	1r
2A	.	2c	.
=20	=20	=20	=20
2F	1d	2A	1r
2G	.	2B	.
4D	[1f	1A	2r
4E	.	.	.
4F	.	.	2a
4G	.	.	.
=21	=21	=21	=21
1A	2f]	0r	1.cc
.	2e	.	.
1r	2c	.	.
.	2d	.	2b
=22	=22	=22	=22
0r	2e	2r	2g
.	2.f	2d	2a
.	.	[1f	4d
.	4e	.	4e
.	[2d	.	4f
.	.	.	4g
=23	=23	=23	=23
0r	4d]	2f]	4a
.	4c	.	4b
.	2A	2e	2.cc
.	2e	2c	.
.	.	.	4b
.	2f	2d	4a
.	.	.	4g
=24	=24	=24	=24
2r	1e	4A	1a
.	.	4B	.
2A	.	4c	.
.	.	4d	.
[1c	1r	4e	4g
.	.	4f	4f
.	.	[2g	4e
.	.	.	4d
=25	=25	=25	=25
2c]	1r	4g]	4e
.	.	4f	4d
2B	.	2d	1dd
2G	2r	1e	.
2A	2e	.	2cc#i
=26	=26	=26	=26
4D	1.f	1d	1dd
4E	.	.	.
4F	.	.	.
4G	.	.	.
4A	.	2.c	1r
4B	.	.	.
[2c	2e	.	.
.	.	4d	.
=27	=27	=27	=27
2c]	2c	2e	1r
2B	2d	2d	.
2c	4A	[1e	2r
.	4B	.	.
[2C	4c	.	2a
.	4d	.	.
=28	=28	=28	=28
4C]	4e	1e]	1.cc
4D	4f	.	.
4E	2.g	.	.
4F	.	.	.
[1G	.	1r	.
.	4f	.	.
.	2d	.	2b
=29	=29	=29	=29
2G]	2e	1r	2g
2F	2.f	.	2a
2.B-i	.	2r	4d
.	4e	.	4e
.	2d	2d	4f
4A	.	.	4g
=30	=30	=30	=30
1F	2.c	1.f	4a
.	.	.	4g
.	.	.	4a
.	4B	.	4b
2r	1A	.	4cc
.	.	.	4dd
2A	.	2e	[2ee
=31	=31	=31	=31
2A	2r	2c	4ee]
.	.	.	4dd
2F	2a	2d	1dd
2G	2g	1e	.
2A	2e	.	2cc#i
=32	=32	=32	=32
0D	1.f	0d	0dd
.	2d	.	.
=33	=33	=33	=33
0G	1d	1r	0dd
.	2r	1g	.
.	2B	.	.
=34	=34	=34	=34
1C	1c	1g	1ee
1G	1B	1g	2dd
.	.	.	[2ee
=35	=35	=35	=35
1A	1c	1.e	4ee]
.	.	.	4dd
.	.	.	4cc
.	.	.	4b
1A	1c	.	2cc
.	.	2f	2cc
=36	=36	=36	=36
[0G	[0d	1g	0b
.	.	2r	.
.	.	[2g	.
=37	=37	=37	=37
0G]	1d]	2g]	0r
.	.	2g	.
.	2r	1b-i	.
.	[2d	.	.
=38	=38	=38	=38
1r	2d]	2a	0r
.	2d	2f	.
2r	1f	[1a	.
[2A	.	.	.
=39	=39	=39	=39
2A]	2e	1a]	0r
2A	2c	.	.
1c	1e	1g	.
=40	=40	=40	=40
2B	2d	0r	0r
2A	2.f	.	.
2.B-i	.	.	.
.	4e	.	.
.	4d	.	.
4A	4c	.	.
=41	=41	=41	=41
4G	4B	0r	2r
4F	4A	.	.
2.G	2.B	.	1dd
4F	4G	.	.
2E	[2c	.	2ee
=42	=42	=42	=42
1D	2c]	1r	1ff
.	2B	.	.
[1C	[1c	2r	2ee
.	.	[2g	2cc
=43	=43	=43	=43
1C]	1c]	2g]	1ee
.	.	2g	.
1G	2r	1b-i	1dd
.	[2d	.	.
=44	=44	=44	=44
1D	2d]	2a	2r
.	2d	2f	1a
1r	1f	1a	.
.	.	.	2a
=45	=45	=45	=45
0r	2e	1g	1cc
.	2c	.	.
.	1e	2r	2b
.	.	[2g	2g
=46	=46	=46	=46
2r	1d	2g]	2b
1D	.	4f	2a
.	.	4e	.
.	2r	2.f	2r
2D	[2A	.	[2a
.	.	4e	.
=47	=47	=47	=47
1F	2A]	2d	2a]
.	2A	2.c	4g
.	.	.	4f
2E	1c	.	2g
.	.	4d	.
2C	.	[2e	[2a
=48	=48	=48	=48
1E	2B	4e]	4a]
.	.	4d	4g
.	2G	4B	1g
.	.	4c	.
1D	1A	1d	.
.	.	.	2f#i
=49	=49	=49	=49
2r	0G	0B	[0g
1d	.	.	.
2d	.	.	.
=50	=50	=50	=50
1c	2r	0r	1g]
.	1g	.	.
2B	.	.	1r
2G	2g	.	.
=51	=51	=51	=51
1d	1f	0r	0r
[1c	2e	.	.
.	2c	.	.
=52	=52	=52	=52
2c]	0g	0r	2r
4B	.	.	1dd
4A	.	.	.
1B	.	.	.
.	.	.	2dd
=53	=53	=53	=53
1A	1a	1r	1cc
1r	1e	[1g	2b
.	.	.	2g
=54	=54	=54	=54
0r	0r	2g]	0dd
.	.	2g	.
.	.	1f	.
=55	=55	=55	=55
2r	1r	2e	0ee
1c	.	2c	.
.	2r	[1g	.
2c	[2g	.	.
=56	=56	=56	=56
1B-i	2g]	1g]	1dd
.	2g	.	.
2A	1f	1a	1r
2F	.	.	.
=57	=57	=57	=57
1.c	2e	1g	2r
.	2c	.	1ee
.	[1g	1r	.
4B	.	.	2ee
4A	.	.	.
=58	=58	=58	=58
1B	1g]	1r	1dd
[1A	1a	2r	2cc
.	.	[2a	2a
=59	=59	=59	=59
1A]	0e	2a]	0ee
.	.	2a	.
1c	.	1g	.
=60	=60	=60	=60
1d	2r	2f	1dd
.	2.a	2d	.
2A	.	[1a	2cc
.	4g	.	.
[2d	4f	.	[2ff
.	4e	.	.
=61	=61	=61	=61
2d]	2d	1a]	2ff]
2c	2e	.	2ee
2B	2f	1b-X	1dd
2G	2g	.	.
=62	=62	=62	=62
[0A	0e	0a	[0cc
=63	=63	=63	=63
0A]	2r	1r	0cc]
.	2e	.	.
.	2e	1A	.
.	2e	.	.
=64	=64	=64	=64
2r	4A	0c	1r
.	4B	.	.
2A	4c	.	.
.	4d	.	.
2A	2e	.	2r
2A	[2f	.	2a
=65	=65	=65	=65
1D	4f]	1d	2a
.	4e	.	.
.	4d	.	2a
.	4c	.	.
1r	1B	[1f	4d
.	.	.	4e
.	.	.	4f
.	.	.	4g
=66	=66	=66	=66
2r	1A	1f]	4a
.	.	.	4b
2A	.	.	2.cc
2A	1r	1e	.
.	.	.	4b
2A	.	.	4a
.	.	.	4g
=67	=67	=67	=67
4D	2r	1d	1f
4E	.	.	.
4F	2.A	.	.
4G	.	.	.
4A	.	1c	1e
4B	4G	.	.
[2c	4A	.	.
.	4B	.	.
=68	=68	=68	=68
4c]	4c	2.e	1cc
4B	4d	.	.
2A	2.e	.	.
.	.	4f	.
2G	.	2g	2b
.	4d	.	.
2A	2c	2f	[2a
=69	=69	=69	=69
1E	1B	1e	2a]
.	.	.	2g#i
[1A	1A	2r	[1a
.	.	2e	.
=70	=70	=70	=70
0A]	2r	2e	0a_
.	2e	2e	.
.	2e	4A	.
.	.	4G	.
.	2e	4A	.
.	.	4B	.
=71	=71	=71	=71
2r	4A	0c	1a]
.	4B	.	.
2A	4c	.	.
.	4d	.	.
2A	2e	.	2r
2A	[2f	.	2a
=72	=72	=72	=72
1D	4f]	1d	2a
.	4e	.	.
.	4d	.	2a
.	4c	.	.
1r	1B	[1f	4d
.	.	.	4e
.	.	.	4f
.	.	.	4g
=73	=73	=73	=73
2r	1A	1f]	4a
.	.	.	4b
2A	.	.	2.cc
2A	1r	1e	.
.	.	.	4b
2A	.	.	4a
.	.	.	4g
=74	=74	=74	=74
4D	2r	1d	1f
4E	.	.	.
4F	2.A	.	.
4G	.	.	.
4A	.	1c	1e
4B	4G	.	.
[2c	4A	.	.
.	4B	.	.
=75	=75	=75	=75
4c]	4c	2.e	1cc
4B	4d	.	.
2A	2.e	.	.
.	.	4f	.
2G	.	2g	2b
.	4d	.	.
2A	2c	2f	[2a
=76	=76	=76	=76
1E	1B	1e	2a]
.	.	.	2g#i
1r	1A	1r	[1a
=77	=77	=77	=77
1.A	1r	1.e	1a]
.	[1c	.	[1a
2A	.	2e	.
=78	=78	=78	=78
1A	2c]	1e	2a]
.	2c	.	2a
[1F	1c	1f	1a
=79	=79	=79	=79
1F]	0c	1f	1a
[1C	.	1e	1g
=80	=80	=80	=80
1C]	0e	0g	0cc
[1G	.	.	.
=81	=81	=81	=81
1G]	1d	1g	1b
1D	1d	2.f	[1a
.	.	4e	.
=82	=82	=82	=82
1D	1.f	4d	1a]
.	.	4c	.
.	.	1d	.
[1F	.	.	[1a
.	4e	4c	.
.	4d	4B	.
=83	=83	=83	=83
1F]	2c	1A	1a]
.	2d	.	.
[1E	[1e	[1B	[1g
=84	=84	=84	=84
1E]	0e]	2B]	0g_
.	.	2G	.
2r	.	1c	.
2C	.	.	.
=85	=85	=85	=85
1.G	2r	1B	1g]
.	2G	.	.
.	[1d	1r	1r
2F	.	.	.
=86	=86	=86	=86
2G	2d]	1r	1r
2E	2c	.	.
[1D	2d	2r	2r
.	2B	2d	2d
=87	=87	=87	=87
1D]	1A	1.f	1.a
1r	1r	.	.
.	.	2e	2g
=88	=88	=88	=88
0r	0r	1f	1a
.	.	1d	1f
=89	=89	=89	=89
0r	1A	1c	2e
.	.	.	2.a
.	[1d	2r	.
.	.	.	4g
.	.	2d	2a
=90	=90	=90	=90
0r	2d]	2f	2b
.	2c	2e	2cc
.	1d	2f	2b
.	.	2f	[2a
=91	=91	=91	=91
1d	1B	2d	2a]
.	.	2d	2g#i
2.c	1A	2.e	1a
4B	.	4d	.
=92	=92	=92	=92
2A	0r	2c	2r
2G	.	2B	2d
2F	.	2A	2d
2G	.	[2d	2d
=93	=93	=93	=93
1E	1g	2d]	2e
.	.	2c#i	2e
2.D	2.f	2d	2f
.	.	2A	4d
4C	4e	.	4e
=94	=94	=94	=94
4D	2d	2.A	4f
4E	.	.	4g
2F	2c	.	2.a
.	.	4A	.
2G	2B	2d	.
.	.	.	4g
2C	2c	2e	[2g
=95	=95	=95	=95
1D	1A	1d	2g]
.	.	.	2f#i
1r	[1G	1d	[1g
=96	=96	=96	=96
1d	1G]	2r	0g]
.	.	2B	.
2.c	1r	2.e	.
4B	.	4d	.
=97	=97	=97	=97
2A	0r	2c	2r
2G	.	2B	2d
2F	.	2A	2d
2G	.	[2d	2d
=98	=98	=98	=98
1E	1g	2d]	2e
.	.	2c#i	2e
2.D	2.f	2d	2f
.	.	2A	4d
4C	4e	.	4e
=99	=99	=99	=99
4D	2d	2.A	4f
4E	.	.	4g
2F	2c	.	2.a
.	.	4A	.
2G	2B	2d	.
.	.	.	4g
2C	2c	2e	[2g
=100	=100	=100	=100
1D	1A	1d	2g]
.	.	.	2f#i
[1Gl	[1Gl	[1dl	[1gl
=101	=101	=101	=101
00G]	00G]	00d]	00g]
==	==	==	==
*-	*-	*-	*-
!!!system-decoration: [*]
!!!RDF**kern: i = editorial accidental
!!!RDF**kern: l = terminal long
!!!ENC: Benjamin Ory
!!!END: 2021/1/27
!!!EED: Benjamin Ory
!!!EEV: 2021/04/29
!!!YEC: Copyright 2021 Benjamin Ory, All Rights Reserved
!!!ONB: Translated from MusicXML on 2021/04/29
